X: 2721
T: Banks Of Lough Gowna, The
R: jig
M: 6/8
K: Bminor
|:B3 B2F|FEF DFA|B3 BAF|d2e fed|
B3 BAF|FEF DFA|def g3|fdB B2A:|
|:def a2b|afb afe|dFA def|g2e fdB|
def a2b|afb afe|def g2e|fdB B2A:|

